X:276
T:Vandals of Hammerwich
M:4/4
K:G
D2 G2 B2 G2 | D2 G2 B2 G2 | d4 d3 d | d4 d4 |
D2 G2 B2 G2 | D2 G2 B2 G2 | d2 c2 A2 F2 | G4 ||
B2 c2 | d4 d3 d | d6 d2 | e2 g2 f2 e2 | e2 d2 d3 e |
d2 c2 c3 d | c2 B2 B3 B | d2 c2 A2 F2 | G4 :|
